app/assets/images/heroicons/micro/sun.svg

<svg width="16" height="16" viewBox="0 0 16 16" fill="none" xmlns="http://www.w3.org/2000/svg">
<path d="M8 1C8.41421 1 8.75 1.33579 8.75 1.75V3.25C8.75 3.66421 8.41421 4 8 4C7.58579 4 7.25 3.66421 7.25 3.25V1.75C7.25 1.33579 7.58579 1 8 1Z" fill="black"/>
<path d="M10.5 8C10.5 9.38071 9.38071 10.5 8 10.5C6.61929 10.5 5.5 9.38071 5.5 8C5.5 6.61929 6.61929 5.5 8 5.5C9.38071 5.5 10.5 6.61929 10.5 8Z" fill="black"/>
<path d="M12.9498 4.11089C13.2427 3.81799 13.2427 3.34312 12.9498 3.05023C12.6569 2.75733 12.182 2.75733 11.8891 3.05023L10.8284 4.11089C10.5356 4.40378 10.5356 4.87865 10.8284 5.17155C11.1213 5.46444 11.5962 5.46444 11.8891 5.17155L12.9498 4.11089Z" fill="black"/>
<path d="M15 8C15 8.41421 14.6642 8.75 14.25 8.75H12.75C12.3358 8.75 12 8.41421 12 8C12 7.58579 12.3358 7.25 12.75 7.25H14.25C14.6642 7.25 15 7.58579 15 8Z" fill="black"/>
<path d="M11.8891 12.9498C12.182 13.2427 12.6569 13.2427 12.9498 12.9498C13.2427 12.6569 13.2427 12.182 12.9498 11.8891L11.8891 10.8284C11.5962 10.5356 11.1213 10.5356 10.8285 10.8284C10.5356 11.1213 10.5356 11.5962 10.8285 11.8891L11.8891 12.9498Z" fill="black"/>
<path d="M8 12C8.41421 12 8.75 12.3358 8.75 12.75V14.25C8.75 14.6642 8.41421 15 8 15C7.58579 15 7.25 14.6642 7.25 14.25V12.75C7.25 12.3358 7.58579 12 8 12Z" fill="black"/>
<path d="M5.17157 11.8891C5.46446 11.5962 5.46446 11.1213 5.17157 10.8284C4.87867 10.5355 4.4038 10.5355 4.11091 10.8284L3.05025 11.8891C2.75735 12.182 2.75735 12.6569 3.05025 12.9497C3.34314 13.2426 3.81801 13.2426 4.11091 12.9497L5.17157 11.8891Z" fill="black"/>
<path d="M4 8C4 8.41421 3.66421 8.75 3.25 8.75H1.75C1.33579 8.75 1 8.41421 1 8C1 7.58579 1.33579 7.25 1.75 7.25H3.25C3.66421 7.25 4 7.58579 4 8Z" fill="black"/>
<path d="M4.11091 5.17157C4.40381 5.46446 4.87868 5.46446 5.17157 5.17157C5.46447 4.87867 5.46447 4.4038 5.17157 4.11091L4.11091 3.05025C3.81802 2.75735 3.34315 2.75735 3.05025 3.05024C2.75736 3.34314 2.75736 3.81801 3.05025 4.11091L4.11091 5.17157Z" fill="black"/>
</svg>

<svg xmlns="http://www.w3.org/2000/svg" viewBox="0 0 16 16" fill="currentColor" aria-hidden="true" data-slot="icon">
  <path d="M8 1a.75.75 0 0 1 .75.75v1.5a.75.75 0 0 1-1.5 0v-1.5A.75.75 0 0 1 8 1ZM10.5 8a2.5 2.5 0 1 1-5 0 2.5 2.5 0 0 1 5 0ZM12.95 4.11a.75.75 0 1 0-1.06-1.06l-1.062 1.06a.75.75 0 0 0 1.061 1.062l1.06-1.061ZM15 8a.75.75 0 0 1-.75.75h-1.5a.75.75 0 0 1 0-1.5h1.5A.75.75 0 0 1 15 8ZM11.89 12.95a.75.75 0 0 0 1.06-1.06l-1.06-1.062a.75.75 0 0 0-1.062 1.061l1.061 1.06ZM8 12a.75.75 0 0 1 .75.75v1.5a.75.75 0 0 1-1.5 0v-1.5A.75.75 0 0 1 8 12ZM5.172 11.89a.75.75 0 0 0-1.061-1.062L3.05 11.89a.75.75 0 1 0 1.06 1.06l1.06-1.06ZM4 8a.75.75 0 0 1-.75.75h-1.5a.75.75 0 0 1 0-1.5h1.5A.75.75 0 0 1 4 8ZM4.11 5.172A.75.75 0 0 0 5.173 4.11L4.11 3.05a.75.75 0 1 0-1.06 1.06l1.06 1.06Z"/>
</svg>
